X:122
T:Ower the Border
Z:Jack Campin, http://www.campin.me.uk/
S:Northumbrian Minstrelsy
M:9/8
L:1/8
K:G
TB2G     B/A/B/c/d/e/ gdB      |dgf    dgB        de/f/g|\
TB2G     B/A/B/c/d/e/ gdB      |c>dc   gec       Te2g  :|
 fdB     de/f/g/f/    g/f/e/d/f|dgf    dgB        de/f/g|\
 fdB     de/f/g/f/    g/f/e/d/B|c>dc   g/f/e/d/c Te2g  :|
 G>AB/c/ dgf          dgB      |dgf    dgB        de/f/g|\
 G>AB/c/ dgf          dgB      |c>dc   g/f/e/d/c Te2g  :|
Tf2d     dB/c/d       dB/c/d   |gB/c/d gB/c/d     fdg   |\
Tf2d     dB/c/d       gdB      |c>dc   g/f/e/d/c Te2g  :|

